X: 11305
T: Eagle's Whistle
R: slip jig
M: 9/8
K: Dmixolydian
~F3 AFE|~F3 AFD|~ E3 FED|~E3 FED|~F3 AFE|~F3 AFD|~E3FEF|~D6|
~F3 AFE|~F3 AFD|~E3 FED|~E3 FED|~ F3 AFE|~F3 AFD|E3FEF D3EFA||
|:~ B2 ABdA|~B2AFED|~ F3 AFE|~F3 AFD|~B2 ABdA|B2 AFEF|~D3 FEF|~D6:|

